images/proposal-item3.svg

<svg width="127" height="126" viewBox="0 0 127 126" fill="none" xmlns="http://www.w3.org/2000/svg">
<path d="M63.3936 91.5323C69.7887 91.5323 75.2255 89.2932 79.7038 84.8149C84.1821 80.3365 86.4196 74.9015 86.4162 68.5097C86.4162 62.1146 84.177 56.6778 79.6987 52.1995C75.2204 47.7212 69.7853 45.4837 63.3936 45.4871C56.9984 45.4871 51.5617 47.7263 47.0833 52.2046C42.605 56.6829 40.3675 62.118 40.371 68.5097C40.371 74.9049 42.6101 80.3416 47.0884 84.82C51.5668 89.2983 57.0018 91.5358 63.3936 91.5323ZM63.3936 81.3001C59.8123 81.3001 56.7852 80.0637 54.3124 77.5909C51.8396 75.1181 50.6032 72.091 50.6032 68.5097C50.6032 64.9284 51.8396 61.9014 54.3124 59.4286C56.7852 56.9558 59.8123 55.7194 63.3936 55.7194C66.9749 55.7194 70.0019 56.9558 72.4747 59.4286C74.9475 61.9014 76.1839 64.9284 76.1839 68.5097C76.1839 72.091 74.9475 75.1181 72.4747 77.5909C70.0019 80.0637 66.9749 81.3001 63.3936 81.3001ZM22.4645 109.439C19.6506 109.439 17.2409 108.436 15.2354 106.431C13.2299 104.425 12.2288 102.017 12.2322 99.2065V37.8129C12.2322 34.9991 13.235 32.5894 15.2405 30.5838C17.246 28.5783 19.654 27.5772 22.4645 27.5807H38.5803L48.0452 17.3484H78.742L88.2068 27.5807H104.323C107.137 27.5807 109.546 28.5834 111.552 30.5889C113.557 32.5945 114.558 35.0025 114.555 37.8129V99.2065C114.555 102.02 113.552 104.43 111.547 106.436C109.541 108.441 107.133 109.442 104.323 109.439H22.4645Z" fill="white"/>
</svg>

<svg width="127" height="126" fill="none" xmlns="http://www.w3.org/2000/svg"><path d="M63.394 91.532c6.395 0 11.831-2.239 16.31-6.717 4.478-4.478 6.716-9.913 6.712-16.305 0-6.395-2.239-11.832-6.717-16.31-4.479-4.479-9.914-6.716-16.305-6.713-6.396 0-11.832 2.24-16.31 6.718-4.479 4.478-6.717 9.913-6.713 16.305 0 6.395 2.24 11.832 6.717 16.31 4.479 4.478 9.914 6.716 16.306 6.712Zm0-10.232c-3.582 0-6.609-1.236-9.082-3.71-2.472-2.472-3.709-5.499-3.709-9.08 0-3.582 1.237-6.609 3.71-9.081 2.472-2.473 5.5-3.71 9.08-3.71 3.582 0 6.609 1.237 9.082 3.71 2.473 2.472 3.709 5.5 3.709 9.08 0 3.582-1.236 6.61-3.71 9.082-2.472 2.473-5.5 3.71-9.08 3.71Zm-40.93 28.139c-2.813 0-5.223-1.003-7.229-3.008-2.005-2.006-3.006-4.414-3.003-7.224V37.813c0-2.814 1.003-5.224 3.009-7.23 2.005-2.005 4.413-3.006 7.224-3.002H38.58l9.465-10.233h30.697l9.465 10.233h16.116c2.814 0 5.223 1.002 7.229 3.008 2.005 2.005 3.006 4.413 3.003 7.224v61.394c0 2.813-1.003 5.223-3.008 7.229-2.006 2.005-4.414 3.006-7.224 3.003H22.465Z" fill="#fff"/></svg>
